icons/presentation-outline.svg

<svg xmlns="http://www.w3.org/2000/svg" width="24" height="24" viewBox="0 0 24 24">
    <path fill="#3A3A47" fill-rule="evenodd" d="M21 2c.667 0 1 .333 1 1s-.333 1-1 1v12c0 1.332-.667 1.999-2 2h-4.367l.721 2.689c.173.644-.063 1.052-.707 1.224-.644.173-1.052-.063-1.225-.707L12.563 18h-1.127l-.858 3.206c-.173.644-.581.88-1.225.707-.644-.172-.88-.58-.707-1.224L9.366 18H5c-1.333 0-2-.667-2-2V4c-.667 0-1-.333-1-1s.333-1 1-1h18zm-2 2H5v12h14V4zm-7 3c.667-.003 1 .386 1 1.167v4.666c0 .778-.333 1.167-1 1.167s-1-.389-1-1.167V8.167c0-.775.333-1.164 1-1.167zm4-1c.667 0 1 .375 1 1.125v5.75c0 .752-.333 1.127-1 1.125-.667-.002-1-.377-1-1.125v-5.75C15 6.375 15.333 6 16 6zM8 9c.667 0 1 .417 1 1.25v2.5C9 13.583 8.667 14 8 14s-1-.417-1-1.25v-2.5C7 9.417 7.333 9 8 9z"/>
</svg>

<svg width="24" height="24" viewBox="0 0 24 24" fill="none" xmlns="http://www.w3.org/2000/svg">
<path fill-rule="evenodd" clip-rule="evenodd" d="M21 4V16C21 17.332 20.333 17.999 19 18H14.634L15.354 20.689C15.527 21.333 15.291 21.741 14.647 21.913C14.003 22.086 13.595 21.85 13.422 21.206L12.563 18H11.437L10.577 21.206C10.405 21.85 9.997 22.086 9.353 21.913C8.709 21.741 8.473 21.333 8.646 20.689L9.366 18H5C3.667 18 3 17.333 3 16V4C2.333 4 2 3.667 2 3C2 2.333 2.333 2 3 2H21C21.667 2 22 2.333 22 3C22 3.667 21.667 4 21 4ZM19 4H5V16H19V4ZM11 8.167C11 7.392 11.333 7.003 12 7C12.667 6.997 13 7.386 13 8.167V12.833C13 13.611 12.667 14 12 14C11.333 14 11 13.611 11 12.833V8.167ZM15 7.125C15 6.375 15.333 6 16 6C16.667 6 17 6.375 17 7.125V12.875C17 13.627 16.667 14.002 16 14C15.333 13.998 15 13.623 15 12.875V7.125ZM7 10.25C7 9.417 7.333 9 8 9C8.667 9 9 9.417 9 10.25V12.75C9 13.583 8.667 14 8 14C7.333 14 7 13.583 7 12.75V10.25Z" fill="#3A3A47"/>
</svg>
